archdroid-icon-theme/Archdroid-DeepOrangeDark/places/scalable/folder-collection-ubuntu-color.svg

<svg fill="#BF360C" height="48" viewBox="0 0 48 48" width="48" xmlns="http://www.w3.org/2000/svg"><g fill="#dd4814"><path d="m8 12h-4v28c0 2.21 1.79 4 4 4h28v-4h-28z"/><path d="m16 4c-2.21 0-4 1.79-4 4v24c0 2.21 1.79 4 4 4h24c2.21 0 4-1.79 4-4v-24c0-2.21-1.79-4-4-4zm18.4375 6.003906c.368369-.026046.747832.053404 1.091797.251953.917342.529669 1.23084 1.7019.701172 2.619141-.529365.916937-1.7019 1.230942-2.619141.701172-.917038-.529364-1.230637-1.7019-.701172-2.619141.331043-.573338.913395-.909714 1.527344-.953125zm-4.75 2.041016c.771192 0 1.517905.106617 2.226563.302734.125271.770381.581619 1.479575 1.310546 1.900391.728016.42041 1.571651.462976 2.300782.1875 1.418226 1.394408 2.340114 3.291704 2.474609 5.404297l-2.732422.039062c-.252368-2.861182-2.65332-5.105468-5.580078-5.105468-.843355 0-1.641799.18773-2.359375.521484l-1.332031-2.386719c1.113053-.551358 2.364701-.863281 3.691406-.863281zm-4.623047 1.400391 1.402344 2.347656c-1.440321 1.013525-2.382813 2.68859-2.382813 4.583984 0 1.895597.942492 3.570459 2.382813 4.583985l-1.402344 2.347656c-1.678398-1.121264-2.926793-2.8338-3.445312-4.841797.605885-.493688.992187-1.247097.992187-2.089844 0-.842949-.386403-1.594101-.992187-2.08789.518621-2.007795 1.766914-3.722791 3.445312-4.84375zm-5.146484 5.013671c1.059134 0 1.917969.85843 1.917969 1.917969 0 1.059033-.858936 1.917969-1.917969 1.917969-1.059438 0-1.917969-.858936-1.917969-1.917969 0-1.059438.858531-1.917969 1.917969-1.917969zm15.349609 2.414063 2.732422.039062c-.133988 2.112593-1.056484 4.009889-2.474609 5.404297-.729131-.275577-1.572766-.232707-2.300782.1875-.729029.42112-1.185275 1.13001-1.310546 1.900391-.708759.196117-1.455371.302734-2.226563.302734-1.326299 0-2.580204-.310173-3.693359-.861328l1.333984-2.388672c.717373.333754 1.515919.521485 2.359375.521485 2.927062 0 5.328622-2.243273 5.580078-5.105469zm-.564453 6.050781c.613941.043342 1.196428.37985 1.527344.953125.529567.917241.216068 2.089675-.701172 2.619141-.917342.529567-2.089472.216068-2.619141-.701172-.529364-.916937-.216068-2.089574.701172-2.619141.343889-.198549.723432-.277958 1.091797-.251953z"/></g></svg>

<svg fill="#BF360C" height="48" version="1.1" viewBox="0 0 48 48" width="48" xmlns="http://www.w3.org/2000/svg"><path d="m8 12l-4 0 0 28c0 2.21 1.79 4 4 4l28 0 0-4-28 0 0-28z" fill="#dd4814"/><path d="M16 4C13.79 4 12 5.79 12 8L12 32C12 34.21 13.79 36 16 36L40 36C42.21 36 44 34.21 44 32L44 8C44 5.79 42.21 4 40 4L16 4zM34.4375 10.003906C34.805869 9.97786 35.185332 10.05731 35.529297 10.255859 36.446639 10.785528 36.760137 11.957759 36.230469 12.875 35.701104 13.791937 34.528569 14.105942 33.611328 13.576172 32.69429 13.046808 32.380691 11.874272 32.910156 10.957031 33.241199 10.383693 33.823551 10.047317 34.4375 10.003906zM29.6875 12.044922C30.458692 12.044922 31.205405 12.151539 31.914063 12.347656 32.039334 13.118037 32.495682 13.827231 33.224609 14.248047 33.952625 14.668457 34.79626 14.711023 35.525391 14.435547 36.943617 15.829955 37.865505 17.727251 38 19.839844L35.267578 19.878906C35.01521 17.017724 32.614258 14.773438 29.6875 14.773438 28.844145 14.773438 28.045701 14.961168 27.328125 15.294922L25.996094 12.908203C27.109147 12.356845 28.360795 12.044922 29.6875 12.044922zM25.064453 13.445313L26.466797 15.792969C25.026476 16.806494 24.083984 18.481559 24.083984 20.376953 24.083984 22.27255 25.026476 23.947412 26.466797 24.960938L25.064453 27.308594C23.386055 26.18733 22.13766 24.474794 21.619141 22.466797 22.225026 21.973109 22.611328 21.2197 22.611328 20.376953 22.611328 19.534004 22.224925 18.782852 21.619141 18.289063 22.137762 16.281268 23.386055 14.566272 25.064453 13.445313zM19.917969 18.458984C20.977103 18.458984 21.835938 19.317414 21.835938 20.376953 21.835938 21.435986 20.977002 22.294922 19.917969 22.294922 18.858531 22.294922 18 21.435986 18 20.376953 18 19.317515 18.858531 18.458984 19.917969 18.458984zM35.267578 20.873047L38 20.912109C37.866012 23.024702 36.943516 24.921998 35.525391 26.316406 34.79626 26.040829 33.952625 26.083699 33.224609 26.503906 32.49558 26.925026 32.039334 27.633916 31.914063 28.404297 31.205304 28.600414 30.458692 28.707031 29.6875 28.707031 28.361201 28.707031 27.107296 28.396858 25.994141 27.845703L27.328125 25.457031C28.045498 25.790785 28.844044 25.978516 29.6875 25.978516 32.614562 25.978516 35.016122 23.735243 35.267578 20.873047zM34.703125 26.923828C35.317066 26.96717 35.899553 27.303678 36.230469 27.876953 36.760036 28.794194 36.446537 29.966628 35.529297 30.496094 34.611955 31.025661 33.439825 30.712162 32.910156 29.794922 32.380792 28.877985 32.694088 27.705348 33.611328 27.175781 33.955217 26.977232 34.33476 26.897823 34.703125 26.923828z" fill="#dd4814"/></svg>
